X:1
T:Chi vuol veder
T:Chi vuol veder
T:Marco Antonio Ingegneri (1547-1592)
C:Marco Antonio Ingegneri
%%score [ 1 2 3 4 ]
L:1/8
M:2/2
K:F
V:1 treble nm="Soprano"
V:2 treble nm="Alto"
V:3 treble nm="Alt"
V:4 treble-8 nm="Tenor"
V:1
 F8 | F4 G4 | A8 | z8 | z8 | c8 | c4 d4 | e8 | A4 A2 A2 | B4 B4 | A4 A4 | E4 E2 E2 | F4 F4 | %13
w: Chi|vuol ve-|der,|||chi|vuol ve-|der,|tut- ta rac-|col- t'in-|sie- me,|tut- ta rac-|col- t'in-|
 E4 E4 | G4 A2 B2 | c3 A d4 | c4 d3 e | f4 f4 | z4 c4- | c4 A4- | A4 A4 | B6 c2 | d4 d4 | f8 | %24
w: sie- me,|quan- ta fu|mai bel- lez-|z'e leg- gia-|dri- a,|mi-|* ri|_ la|don- *|* na|mi-|
 e8 || z4 c4 | c6 d2 | c2 B2 A4 | z4 z2 c2- | c2 B2 c4 | c6 c2 | d4 c4 | c6 A2 | G4 G4 | z4 A4 | %35
w: a.|Ve-|dra'i bion-|di ca- pei,|a-|* van- zar|di va-|ghez- z'il|piu fin'|o- ro,|d'a-|
 A6 F2 | B4 A4 | d4 d4 | c6 f2 | e4 e4 | z8 | z4 d4- | d2 c4 d2 | c2 B2 A4 | B4 A2 G2 | A4 c4 | %46
w: vo- rio'il|fron- te|spa- ti-|o- so'e|schie- to,||et|_ quel- l'on-|de vor- rei|spes- so mo-|rir tan-|
 d2 B2 c2 d2 | c4 c4 | e4 e2 d2 | e2 f2 e4- | e4 e4 | c4 A2 d2 | c2 =B2 c4 | z4 c4 | A4 F2 A2- | %55
w: to n'ha- vrei di-|let- to,|tan- to n'ha-|vrei di- let-|* to,|boc- ca di|bei ru- bin,|boc-|ca di bei|
 A2 G2 A2 c2 | c3 B AB cA | B4 A2 A2- | A2 G2 A4 | z2 A4 A2 | B4 B2 c2 | c4 A4- | A2 G4 F2 | %63
w: _ ru- bin ch'as-|con- * * * * *|* der suo-|* * le,|quel- le|per- le d'a-|mor ric-|* co the-|
 E4 F4 | z2 A4 A2 | c4 A2 A2 | d4 c4 | f2 e2 d4 | e8 | A4 B4- | B4 c4 | d8- | d4 B4 | A8 | A8 | %75
w: so- ro,|sen- ti-|ra quel- le|dol- cial-|te pa- ro-|le,|che fan|_ fer-|mar|_ il|so-|le,|
 z4 c4 | c4 c4 | c4 c4 | d4 d2 c2 | d2 e2 f4 | e4 A4- | A2 c2 B2 A2 | G4 G4 | z8 | B8 | A4 z2 d2 | %86
w: con|ar- mo-|nia si|nuo- va per-|cuo- ton l'a-|ria di|_ so- a- vi'ac-|cen- ti,||oc-|chi voi|
 B2 c2 d4- | d4 c4 | A8- | A4 G4 | F2 G2 A2 B2 | c2 d2 e2 c2 | d4 c4 | z2 e2 d2 e2 | c3 d e4 | %95
w: se- te stra-|* li|re-|* ti'e|fo- * * *||* co|con cui fe-|ris- se'a- mor|
 z4 g4 | f4 e4 | d4 c4 | z2 G2 A2 F2 | G2 A2 B4 | A4 z2 c2 | f2 d2 e2 f2 | d4 c4 | z2 G2 c2 A2 | %104
w: pren-|d'et in-|fiam- ma,|per voi non|ho'in me dram-|ma, che|non si'ar- den- te|fiam- ma,|che non si'ar-|
 =B2 c2 A4 | G8- | G8 |: z4 B4- | B4 A2 A2 | B4 c4 | d4 c4 | z2 d2 f4 | e2 e4 f2 | d4 c4- | c4 e4 | %115
w: den- te fiam-|ma,|_|ma|_ se pie-|ta si|tro- va,|fra que-|ste gra- tie|san- te,|_ fe-|
 f4 e2 d2- | d2 f2 e4 | A4 d4 | c2 B4 d2 | c4 z2 A2 | d4 c2 B2- | B2 d2 c4 | c8 | B4 A2 F2- | %124
w: li- ce'an- chor|_ sa- ro,|fe- li-|ce'an- chor sa-|ro, fe-|li- ce'an- chor|_ sa- ro|so-|pr'o- gn'a- man-|
 F2 ED E4 |1 A8 :|2 A8 |] %127
w: |te,|te.|
V:2
 z4 F4 | D4 E4 | F8 | z8 | z8 | A8 | A4 =B4 | c8 | c4 c2 c2 | F4 G4 | C4 C4 | C4 C2 C2 | A,6 =B,2 | %13
w: Chi|vuol ve-|der,|||chi|vuol ve-|der,|tut- ta rac-|col- t'in-|sie- me,|tut- ta rac-|col- t'in|
 C4 C4 | z4 c4- | c2 F4 G2 | A2 c2 B4 | A4 A2 B2 | A4 A4 | c8 | c4 c4 | d8- | d4 B4 | c8 | c8 || %25
w: si- me,|quan|_ ta fu|mai bel- lez-|z'e leg- gia-|dri- a,|mi-|ri la|don-|* na|mi-|a.|
 F4 F4- | F2 G2 A2 B2 | A4 z2 c2- | c2 B2 A4 | F2 G2 A4 | G4 z2 A2 | F2 B4 A2- | A2 G4 F2 | E4 E4 | %34
w: Ve- dra'i|_ bion- di ca-|pei, a-|* van- zar|di va- ghez-|za, di|va- ghez- z'il|_ piu fin'|o- ro,|
 z4 F4 | F6 A2 | G4 C4 | F6 G2 | A2 B2 c4- | c4 c4 | z8 | z4 F4- | F2 A4 B2 | A2 G2 F4 | %44
w: d'a-|vo- rio'il|fron- te|spa- ti-|o- so'e schie-|* to,||et|_ quel- l'on-|de vo- rei|
 D4 C2 B,2 | A,4 A4 | A2 G2 A2 B2 | A4 A4 | c4 c2 A2 | c6 G2 | c4 c4 | A4 F2 D2 | F2 G2 A4 | %53
w: spes- so mo-|rir tan-|to n'ha- vrei di-|let- to,|tan- to n'ha-|vrei di-|let- to,|boc- ca di|bei ru- bin,|
 B4 A2 G2 | c4 C4 | D2 B,2 C4- | C4 C4 | D3 E F4 | F2 D4 C2 | z2 F4 E2 | G4 G2 A2 | G4 c4- | %62
w: boc- ca di|bei ru-|bin ch'- as-|* con-|der _ _|suo- * le,|quel- le|per- le d'a-|mor ric-|
 c2 B2 A4 | G4 A4 | z2 F4 F2 | E4 F4 | F2 B4 A2- | A A c2 =B4 | c8 | F8 | G4 A4 | B6 AG | %72
w: * co the-|so- ro,|sen- ti-|ra quel-|le dol- cial-|* te pa- ro-|le,|che|fan fer-|mar _ _|
 F2 D2 G4- | G4 ^F2 E2 | ^F4 F4 | z4 G4 | A4 A4 | G4 A4 | B4 F4 | z2 G2 A2 =B2 | c4 c2 F2- | %81
w: _ il so-||* le,|con|ar- mo-|nia si|mo- va|per- cuo- ton|l'a- ria di|
 F2 E2 D2 F2 | E4 E4 | z8 | G8 | F8 | z2 A2 F3 G | A4 A4 | F8 | F4 D4- | D4 C4 | z2 F2 E2 F2 | %92
w: _ so- a- vi'ac-|cen- ti,||oc-|chi|voi se- te|stra- li|re-|ti'e fo-|* co|con cui fe-|
 D3 E F4 | z4 G4 | A4 G4 | F4 E2 G2 | B2 A2 c2 G2 | z2 D2 E2 C2 | D2 E2 F4 | C4 z2 F2 | %100
w: ris- se'a- mor|pren-|d'et in-|fiam- ma, pren-|d'et in fiam- ma,|per voi non|ho'in me dram-|ma, che|
 F2 D2 F2 E2 | A4 G2 A2 | F2 B2 A2 A2 | G4 A4 | z2 G2 F2 F2 | E2 E2 D4 | E8 |: z4 F4- | F4 F2 E2 | %109
w: non si'ar- den- te|fiam- ma, che|non si'ar- den- te|fiam- ma,|che non si'ar-|den- te fiam-|ma,|ma|_ se pie-|
 G4 A4 | B4 A4 | A4 A2 A2 | c4 c2 A2- | A2 G2 A4- | A4 c4 | F4 G2 B2- | B2 A2 c4 | z2 F2 D4 | %118
w: ta si|tro- va,|fra que- ste|gra- tie san-|* * te,|_ fe-|li- ce'an- chor|_ sa- ro,|fe- li-|
 E2 G4 F2 | A4 z2 c2 | B4 A2 G2- | G2 B2 A4- | A4 F4 | F4 F4 | G8 |1 F8 :|2 F8 |] %127
w: ce'an- chor sa-|ro, fe-|li- ce'an- chor|_ sa- ro|_ so-|pr'o- gn'a-|man-|te,|te.|
V:3
 z8 | z8 | C8 | A,4 =B,4 | C8 | z4 F4 | E4 G4 | G8 | F4 F2 F2 | D6 E2 | F4 F4 | G4 G2 G2 | C4 D4 | %13
w: ||Chi|vuol ve-|der,|chi|vuol ve-|der,|tut- ta rac-|col- t'in-|sie- me,|tut- ta rac-|col- t'in-|
 G,4 G,4 | z8 | F4 D2 D2 | F2 E2 G4 | C4 D3 E | F4 F4 | E8 | F4 F4 | F8- | F4 G4 | A8 | G8 || z8 | %26
w: sie- me,||quan- ta fu|mai bel- lez-|z'e leg gia-|dri- a,|mi-|ri la|don-|* na|mi-|a.||
 z8 | F4 F4- | F2 G2 F2 E2 | D4 z2 F2- | F2 E2 F4 | D2 B,2 F4- | F2 C2 E2 F2 | C4 C4 | z2 C4 C2- | %35
w: |Ve- dra'i|_ bion- di ca-|pei, a-|* van- zar|di va- ghez-|* z'il piu fin'|o- ro,|d'a- vo-|
 C2 A,2 D4 | D4 F2 E2 | D2 C2 B,4 | A,4 A4 | G6 A2 | G2 F2 E2 G2- | G2 F2 D4 | F4 z2 G2 | E4 z4 | %44
w: * rio'il fron-|te spa- ci-|o- so'e schie-|to, et|quel- l'on-|de vor- rei spes-|* so mo-|rir,- mo-|rir|
 z8 | z4 F4 | F2 D2 F2 F2 | F4 F4 | G4 A2 F2 | G2 A2 G4- | G4 G4 | z8 | z4 F4 | D2 G2 F2 E2 | %54
w: |tan-|to n'ha- vrei di-|let- to,|tan- to n'ha-|vrei di- let-|* to,||boc-|ca di bei ru-|
 F4 A4 | F2 D2 F2 G2 | A4 E4 | G4 C4 | D4 E4 | z2 D4 C2 | D4 D2 F2 | E4 F4 | C4 C4 | C4 C4 | %64
w: bin, boc-|ca di bei ru-|bin ch'as-|con- der|suo- le,|quel- le|per- le d'a-|mor ric-|co the-|so- ro,|
 z2 D4 D2 | A,4 D2 D2 | B,4 F4 | D2 C2 G4 | C8 | D8 | _E4 C4 | B,8- | B,4 G,4 | D8 | D8 | z4 C4 | %76
w: sen- ti-|ra quel- le|dol- cial-|te pa- ro-|le,|che|fan fer-|mar|_ il|so-|le,|con|
 F4 F4 | E4 F4 | B,4 B,2 F2 | F2 E2 D4 | C4 z2 D2- | D2 A,2 B,2 F,2 | C4 C4 | z8 | D8 | D8 | %86
w: ar- mo-|nia si|mo- va per-|cuo- ton l'a-|ria di|_ so- a- vi'ac-|cen- ti,||oc-|chi|
 z2 F2 D3 E | F4 E4 | D8 | C4 B,4- | B,4 A,4 | A4 G2 A2 | F3 G A4 | G8 | F4 E4 | D4 C4 | %96
w: voi se- te|stra- li|re-|ti'e fo-|* co|con cui fe-|ris- se'a- mor|pren-|d'et in|fiam- ma,|
 z2 F2 G2 D2 | F2 G2 A4 | F2 C2 F2 D2 | E2 F2 D4- | D4 C4 | z2 F2 C2 C2 | D3 E F4 | E4 C2 F2 | %104
w: per voi non|ho'in me dram-|ma, che non si'ar-|de- te fiam-|* ma,|che non si'ar-|den- te fiam-|* ma, che|
 D2 E2 C2 D2- | DC C4 B,2 | C8 |: z4 D4- | D4 C2 C2 | D4 F4 | F4 F4 | z2 F4 A2- | A2 G4 F2- | %113
w: non si'ar- de- te|_ _ fiam- *|ma,|ma|_ se pie-|ta si|tro- va,|fra que-|* ste gra-|
 F2 D2 F4 | E4 A4 | A4 c2 F2- | F2 F2 G4 | z2 C2 F4 | A2 D4 D2 | E4 z2 F2 | F4 F2 D2- | D2 G2 E4 | %122
w: * tie san-|te, fe-|li- ce'an- chor|_ sa- ro,|fe- li-|ce'an- chor sa-|ro, fe-|li- ce'an- chor|_ sa- ro|
 A,8 | D4 A,4 | C8 |1 C8 :|2 C8 |] %127
w: so-|pr'o- gn'a-|man-|te,|te.|
V:4
 z8 | z8 | F8 | F4 G4 | A8 | z4 F4 | A4 G4 | c8 | F4 F2 F2 | B4 G4 | F4 F4 | C4 C2 C2 | F4 D4 | %13
w: ||Chi|vuol ve-|der,|chi|vuol ve-|der,|tut- ta rac-|col- t'in-|sie- me,|tut- ta rac-|col- t'in-|
 C4 C4 | c4 F2 G2 | A2 A2 B4 | A4 G2 G2 | F4 D4 | z8 | A8 | F4 F4 | B8- | B4 G4 | F8 | c8 || z8 | %26
w: sie- me,|quan- ta fu|mai bel- lez-|z"e leg- gia-|dri- a,||mi-|ri la|don-|* na|mi-|a.||
 z8 | z8 | z8 | z8 | z8 | z8 | z8 | z8 | z4 F4 | F6 D2 | G4 F4 | B,2 C2 D2 E2 | F4 F4 | c4 c4- | %40
w: ||||||||D'a-|vo- rio'il|fron- te|spa- ti- o- so|schie- to,|et quel-|
 c2 d2 c2 B2 | A4 B4- | B2 A4 G2 | A4 z4 | z8 | z4 F4 | D2 G2 F2 B,2 | F4 F4 | c4 A2 d2 | %49
w: * l'on- de vor-|rei spes-|* so mo-|rir||tan-|to n'ha- vrei di-|let- to,|tan- to n'ha-|
 c2 F2 c4- | c4 c4 | z8 | z8 | z8 | z4 F4 | D2 G2 F2 E2 | F4 A4 | G4 F4 | B4 A4 | z2 D4 A2 | %60
w: vrei di- let-|* to,||||boc-|ca di bei ru-|bin ch'as-|con- der|suo- le,|quel- le|
 G4 G2 F2 | c4 F4 | E4 F4 | C4 F4 | z8 | z8 | z8 | z8 | z8 | z8 | z8 | z8 | z8 | z8 | z8 | z8 | %76
w: per- le d'a-|mor ric-|co the-|so- ro,|||||||||||||
 z8 | z8 | z8 | z8 | z8 | z8 | z8 | z8 | G8 | D4 z2 B2 | G2 F2 B4 | A8 | D6 E2 | F4 G4 | %90
w: ||||||||oc-|chi voi|se- te stra-|li|re- *|* ti'e|
 D2 E2 F2 G2 | A2 B2 c2 A2 | B4 F4 | z2 c2 =B2 c2 | A3 B c4 | z4 c4 | d4 c4 | B4 A4 | z8 | %99
w: fo- * * *||* co|con cui fe-|ris- se'a- mor|pren-|d'et in|fiam- ma,||
 z2 F2 G2 D2 | F2 G2 A4 | D4 z2 F2 | B2 G2 A3 B | c4 F4 | z2 C2 F2 D2 | E3 F G4 | C8 |: z4 B4- | %108
w: per voi non|ho'in me dram-|ma, che|non si'ar- den- te|fiam- ma,|che non si'ar-|den- te fiam-|ma,|ma|
 B4 F2 A2 | G4 F4 | B4 F4 | z2 D2 d4 | A2 c4 d2 | B4 A4- | A4 A4 | d4 c2 B2- | B2 d2 c4 | %117
w: _ se pie-|ta si|tro- va,|fra que-|ste gra- tie|san- te,|_ fe-|li- ce'an- chor|_ sa- ro,|
 z2 A2 B4 | A2 G4 B2 | A4 z2 F2 | B4 F2 G2- | G2 G2 A4 | F8 | B,4 D4 | C8 |1 F8 :|2 F8 |] %127
w: fe- li-|ce'an- chor sa-|ro, fe-|li- c''an- chor|_ sa- ro|so-|pr'o- gn'a-|man-||te.|

